Numix/16/status/indicator-keyboard-Sv-2.svg

<?xml version="1.0" encoding="UTF-8" standalone="no"?>
<svg
   xmlns:dc="http://purl.org/dc/elements/1.1/"
   xmlns:cc="http://creativecommons.org/ns#"
   xmlns:rdf="http://www.w3.org/1999/02/22-rdf-syntax-ns#"
   xmlns:svg="http://www.w3.org/2000/svg"
   xmlns="http://www.w3.org/2000/svg"
   xmlns:sodipodi="http://sodipodi.sourceforge.net/DTD/sodipodi-0.dtd"
   xmlns:inkscape="http://www.inkscape.org/namespaces/inkscape"
   viewBox="0 0 16 16"
   id="svg2"
   version="1.1"
   inkscape:version="0.91 r13725"
   sodipodi:docname="indicator-keyboard-Sv-2.svg">
  <metadata
     id="metadata14">
    <rdf:RDF>
      <cc:Work
         rdf:about="">
        <dc:format>image/svg+xml</dc:format>
        <dc:type
           rdf:resource="http://purl.org/dc/dcmitype/StillImage" />
      </cc:Work>
    </rdf:RDF>
  </metadata>
  <defs
     id="defs12" />
  <sodipodi:namedview
     pagecolor="#ffffff"
     bordercolor="#666666"
     borderopacity="1"
     objecttolerance="10"
     gridtolerance="10"
     guidetolerance="10"
     inkscape:pageopacity="0"
     inkscape:pageshadow="2"
     inkscape:window-width="640"
     inkscape:window-height="480"
     id="namedview10"
     showgrid="false"
     inkscape:zoom="14.75"
     inkscape:cx="8"
     inkscape:cy="8"
     inkscape:window-x="65"
     inkscape:window-y="24"
     inkscape:window-maximized="0"
     inkscape:current-layer="svg2" />
  <path
     style="fill:#ececec;fill-opacity:1"
     d="M 1.5996094 0 C 0.71320937 2.9605947e-16 0 0.71320937 0 1.5996094 L 0 14.400391 C 2.9605947e-16 15.286791 0.71320937 16 1.5996094 16 L 14.400391 16 C 15.286791 16 16 15.286791 16 14.400391 L 16 1.5996094 C 16 0.71320937 15.286791 0 14.400391 0 L 1.5996094 0 z M 4.4882812 4.7246094 C 4.6562812 4.7246094 4.822375 4.7357656 4.984375 4.7597656 C 5.146375 4.7837656 5.2955938 4.817375 5.4335938 4.859375 C 5.5775937 4.895375 5.7063125 4.936375 5.8203125 4.984375 C 5.9403125 5.032375 6.0391875 5.0846719 6.1171875 5.1386719 L 5.9023438 5.6503906 C 5.7283437 5.5303906 5.5137187 5.4352813 5.2617188 5.3632812 C 5.0157188 5.2912813 4.7489375 5.2558594 4.4609375 5.2558594 C 4.2629375 5.2558594 4.0801094 5.2763594 3.9121094 5.3183594 C 3.7501094 5.3543594 3.6102344 5.4178125 3.4902344 5.5078125 C 3.3702344 5.5918125 3.2731719 5.6980781 3.2011719 5.8300781 C 3.1351719 5.9620781 3.1015625 6.1225938 3.1015625 6.3085938 C 3.1015625 6.5005938 3.1389375 6.6629219 3.2109375 6.7949219 C 3.2829375 6.9269219 3.3818125 7.0407187 3.5078125 7.1367188 C 3.6398125 7.2327187 3.7927969 7.3184844 3.9667969 7.3964844 C 4.1407969 7.4744844 4.3292031 7.556625 4.5332031 7.640625 C 4.7792031 7.742625 5.0105625 7.8433125 5.2265625 7.9453125 C 5.4485625 8.0473125 5.6407344 8.1686406 5.8027344 8.3066406 C 5.9647344 8.4446406 6.0934531 8.6125469 6.1894531 8.8105469 C 6.2854531 9.0085469 6.3339844 9.2510625 6.3339844 9.5390625 C 6.3339844 10.103063 6.1362344 10.526594 5.7402344 10.808594 C 5.3502344 11.090594 4.8184844 11.230469 4.1464844 11.230469 C 3.9064844 11.230469 3.6882344 11.215547 3.4902344 11.185547 C 3.2922344 11.155547 3.1149844 11.120125 2.9589844 11.078125 C 2.8029844 11.030125 2.6705 10.981594 2.5625 10.933594 C 2.4545 10.885594 2.3705469 10.844594 2.3105469 10.808594 L 2.5078125 10.277344 C 2.5678125 10.313344 2.6499531 10.354344 2.7519531 10.402344 C 2.8539531 10.450344 2.9733281 10.498875 3.1113281 10.546875 C 3.2493281 10.588875 3.4060781 10.624297 3.5800781 10.654297 C 3.7540781 10.684297 3.94625 10.699219 4.15625 10.699219 C 4.64225 10.699219 5.0190625 10.613453 5.2890625 10.439453 C 5.5590625 10.259453 5.6953125 9.970219 5.6953125 9.5742188 C 5.6953125 9.3462187 5.6485938 9.1578125 5.5585938 9.0078125 C 5.4745937 8.8518125 5.3607969 8.7230938 5.2167969 8.6210938 C 5.0727969 8.5130937 4.9086563 8.4235625 4.7226562 8.3515625 C 4.5366562 8.2735625 4.3407188 8.1914219 4.1367188 8.1074219 C 3.8787188 8.0054219 3.6493125 7.9009687 3.4453125 7.7929688 C 3.2413125 7.6849688 3.065875 7.5655937 2.921875 7.4335938 C 2.777875 7.2955937 2.6678438 7.1388438 2.5898438 6.9648438 C 2.5178437 6.7908437 2.4824219 6.5875156 2.4824219 6.3535156 C 2.4824219 5.8195156 2.6577188 5.4146719 3.0117188 5.1386719 C 3.3657187 4.8626719 3.8582813 4.7246094 4.4882812 4.7246094 z M 6.7363281 6.4433594 L 7.3574219 6.4433594 C 7.4294219 6.7613594 7.5171406 7.10275 7.6191406 7.46875 C 7.7271406 7.82875 7.8409375 8.1888281 7.9609375 8.5488281 C 8.0869375 8.9028281 8.2156563 9.2479844 8.3476562 9.5839844 C 8.4796563 9.9139846 8.608375 10.208797 8.734375 10.466797 C 8.860375 10.208797 8.9910469 9.9139846 9.1230469 9.5839844 C 9.2550469 9.2479844 9.38 8.9028281 9.5 8.5488281 C 9.626 8.1888281 9.7397969 7.82875 9.8417969 7.46875 C 9.9497967 7.10275 10.039328 6.7613594 10.111328 6.4433594 L 10.697266 6.4433594 C 10.589266 6.8693594 10.469891 7.289125 10.337891 7.703125 C 10.205891 8.117125 10.064062 8.5219688 9.9140625 8.9179688 C 9.7700625 9.3139687 9.6170781 9.6945467 9.4550781 10.060547 C 9.2990781 10.426547 9.1460937 10.771703 8.9960938 11.095703 L 8.4375 11.095703 C 8.2815 10.771703 8.1267031 10.426547 7.9707031 10.060547 C 7.8147031 9.6945467 7.6617187 9.3139687 7.5117188 8.9179688 C 7.3677187 8.5219688 7.2296562 8.117125 7.0976562 7.703125 C 6.9656563 7.289125 6.8443281 6.8693594 6.7363281 6.4433594 z M 12.361328 8.7539062 C 12.755228 8.7539062 13.0511 8.851875 13.25 9.046875 C 13.4489 9.237975 13.548828 9.5044563 13.548828 9.8476562 C 13.548828 9.9997563 13.521397 10.14475 13.466797 10.28125 C 13.412197 10.41385 13.337741 10.543169 13.244141 10.667969 C 13.154441 10.792769 13.052547 10.912297 12.935547 11.029297 C 12.818547 11.146297 12.699025 11.263859 12.578125 11.380859 C 12.476725 11.478359 12.376797 11.578288 12.279297 11.679688 C 12.185697 11.777188 12.099484 11.877116 12.021484 11.978516 C 11.947384 12.076016 11.888597 12.172031 11.841797 12.269531 C 11.798897 12.363131 11.777344 12.457181 11.777344 12.550781 L 11.777344 12.5625 L 13.689453 12.5625 L 13.689453 12.896484 L 11.355469 12.896484 C 11.355469 12.888684 11.353543 12.874969 11.349609 12.855469 L 11.349609 12.755859 C 11.349609 12.572559 11.382919 12.402094 11.449219 12.246094 C 11.515519 12.086194 11.599772 11.937275 11.701172 11.796875 C 11.806472 11.656475 11.920122 11.525197 12.044922 11.404297 C 12.173622 11.283397 12.297063 11.165834 12.414062 11.052734 C 12.511562 10.959134 12.603653 10.869003 12.689453 10.783203 C 12.779153 10.693503 12.857528 10.603366 12.923828 10.509766 C 12.990128 10.416166 13.041078 10.316237 13.080078 10.210938 C 13.119078 10.105638 13.138672 9.9900344 13.138672 9.8652344 C 13.138672 9.5922344 13.066169 9.39825 12.917969 9.28125 C 12.773669 9.16035 12.589488 9.0996094 12.367188 9.0996094 C 12.242387 9.0996094 12.130703 9.1152844 12.033203 9.1464844 C 11.935703 9.1776844 11.851444 9.2149125 11.777344 9.2578125 C 11.707144 9.2968125 11.646403 9.3379594 11.595703 9.3808594 C 11.545003 9.4237594 11.507775 9.4570688 11.484375 9.4804688 L 11.285156 9.2167969 C 11.308556 9.1894969 11.349703 9.1503094 11.408203 9.0996094 C 11.470603 9.0450094 11.547019 8.9921062 11.636719 8.9414062 C 11.730319 8.8907063 11.836131 8.8476 11.957031 8.8125 C 12.077931 8.7735 12.213128 8.7539063 12.361328 8.7539062 z "
     id="path4" />
</svg>

<svg xmlns="http://www.w3.org/2000/svg" viewBox="0 0 16 16">
 <path d="m 1.6 0 c -0.886 0 -1.6 0.713 -1.6 1.6 l 0 12.801 c 0 0.886 0.713 1.6 1.6 1.6 l 12.801 0 c 0.886 0 1.6 -0.713 1.6 -1.6 l 0 -12.801 c 0 -0.886 -0.713 -1.6 -1.6 -1.6 l -12.801 0 z m 2.889 4.725 c 0.168 0 0.334 0.011 0.496 0.035 c 0.162 0.024 0.311 0.058 0.449 0.1 c 0.144 0.036 0.273 0.077 0.387 0.125 c 0.12 0.048 0.219 0.1 0.297 0.154 l -0.215 0.512 c -0.174 -0.12 -0.389 -0.215 -0.641 -0.287 c -0.246 -0.072 -0.513 -0.107 -0.801 -0.107 c -0.198 0 -0.381 0.02 -0.549 0.063 c -0.162 0.036 -0.302 0.099 -0.422 0.189 c -0.12 0.084 -0.217 0.19 -0.289 0.322 c -0.066 0.132 -0.1 0.293 -0.1 0.479 c 0 0.192 0.037 0.354 0.109 0.486 c 0.072 0.132 0.171 0.246 0.297 0.342 c 0.132 0.096 0.285 0.182 0.459 0.26 c 0.174 0.078 0.362 0.16 0.566 0.244 c 0.246 0.102 0.477 0.203 0.693 0.305 c 0.222 0.102 0.414 0.223 0.576 0.361 c 0.162 0.138 0.291 0.306 0.387 0.504 c 0.096 0.198 0.145 0.441 0.145 0.729 c 0 0.564 -0.198 0.988 -0.594 1.27 c -0.39 0.282 -0.922 0.422 -1.594 0.422 c -0.24 0 -0.458 -0.015 -0.656 -0.045 c -0.198 -0.03 -0.375 -0.065 -0.531 -0.107 c -0.156 -0.048 -0.288 -0.097 -0.396 -0.145 c -0.108 -0.048 -0.192 -0.089 -0.252 -0.125 l 0.197 -0.531 c 0.06 0.036 0.142 0.077 0.244 0.125 c 0.102 0.048 0.221 0.097 0.359 0.145 c 0.138 0.042 0.295 0.077 0.469 0.107 c 0.174 0.03 0.366 0.045 0.576 0.045 c 0.486 0 0.863 -0.086 1.133 -0.26 c 0.27 -0.18 0.406 -0.469 0.406 -0.865 c 0 -0.228 -0.047 -0.416 -0.137 -0.566 c -0.084 -0.156 -0.198 -0.285 -0.342 -0.387 c -0.144 -0.108 -0.308 -0.198 -0.494 -0.27 c -0.186 -0.078 -0.382 -0.16 -0.586 -0.244 c -0.258 -0.102 -0.487 -0.206 -0.691 -0.314 c -0.204 -0.108 -0.379 -0.227 -0.523 -0.359 c -0.144 -0.138 -0.254 -0.295 -0.332 -0.469 c -0.072 -0.174 -0.107 -0.377 -0.107 -0.611 c 0 -0.534 0.175 -0.939 0.529 -1.215 c 0.354 -0.276 0.847 -0.414 1.477 -0.414 z m 2.248 1.719 l 0.621 0 c 0.072 0.318 0.16 0.659 0.262 1.025 c 0.108 0.36 0.222 0.72 0.342 1.08 c 0.126 0.354 0.255 0.699 0.387 1.035 c 0.132 0.33 0.261 0.625 0.387 0.883 c 0.126 -0.258 0.257 -0.553 0.389 -0.883 c 0.132 -0.336 0.257 -0.681 0.377 -1.035 c 0.126 -0.36 0.24 -0.72 0.342 -1.08 c 0.108 -0.366 0.198 -0.707 0.27 -1.025 l 0.586 0 c -0.108 0.426 -0.227 0.846 -0.359 1.26 c -0.132 0.414 -0.274 0.819 -0.424 1.215 c -0.144 0.396 -0.297 0.777 -0.459 1.143 c -0.156 0.366 -0.309 0.711 -0.459 1.035 l -0.559 0 c -0.156 -0.324 -0.311 -0.669 -0.467 -1.035 c -0.156 -0.366 -0.309 -0.747 -0.459 -1.143 c -0.144 -0.396 -0.282 -0.801 -0.414 -1.215 c -0.132 -0.414 -0.253 -0.834 -0.361 -1.26 z m 5.625 2.311 c 0.394 0 0.69 0.098 0.889 0.293 c 0.199 0.191 0.299 0.458 0.299 0.801 c 0 0.152 -0.027 0.297 -0.082 0.434 c -0.055 0.133 -0.129 0.262 -0.223 0.387 c -0.09 0.125 -0.192 0.244 -0.309 0.361 c -0.117 0.117 -0.237 0.235 -0.357 0.352 c -0.101 0.098 -0.201 0.197 -0.299 0.299 c -0.094 0.098 -0.18 0.197 -0.258 0.299 c -0.074 0.097 -0.133 0.194 -0.18 0.291 c -0.043 0.094 -0.064 0.188 -0.064 0.281 l 0 0.012 l 1.912 0 l 0 0.334 l -2.334 0 c 0 -0.008 -0.002 -0.022 -0.006 -0.041 l 0 -0.1 c 0 -0.183 0.033 -0.354 0.1 -0.51 c 0.066 -0.16 0.151 -0.309 0.252 -0.449 c 0.105 -0.14 0.219 -0.272 0.344 -0.393 c 0.129 -0.121 0.252 -0.238 0.369 -0.352 c 0.098 -0.094 0.19 -0.184 0.275 -0.27 c 0.09 -0.09 0.168 -0.18 0.234 -0.273 c 0.066 -0.094 0.117 -0.194 0.156 -0.299 c 0.039 -0.105 0.059 -0.221 0.059 -0.346 c 0 -0.273 -0.073 -0.467 -0.221 -0.584 c -0.144 -0.121 -0.328 -0.182 -0.551 -0.182 c -0.125 0 -0.236 0.016 -0.334 0.047 c -0.098 0.031 -0.182 0.068 -0.256 0.111 c -0.07 0.039 -0.131 0.08 -0.182 0.123 c -0.051 0.043 -0.088 0.076 -0.111 0.1 l -0.199 -0.264 c 0.023 -0.027 0.065 -0.066 0.123 -0.117 c 0.062 -0.055 0.139 -0.108 0.229 -0.158 c 0.094 -0.051 0.199 -0.094 0.32 -0.129 c 0.121 -0.039 0.256 -0.059 0.404 -0.059 z" style="fill:#ececec;fill-opacity:1"/>
</svg>
